X:1
T:Title
%%score { ( 1 3 ) | ( 2 4 ) }
L:1/8
Q:1/4=100
M:6/8
K:G
V:1 treble nm="Grand Piano"
V:3 treble 
V:2 bass 
V:4 bass 
V:1
 .[D,B,D]3 [B,G]2 G/G/ | [B,B]3 [B,G]3 | A>AA [DE]2 E | [CA]6 | .[E,CE]3 A>AA | [Cc]3 [CA]3 | %6
w: Adam~Geibel * * *||||||
 .[^CA]3 .[E,G,CE]3 | [CFA]6 | [DGB]2 d .[CDA]3 | [DGB]2 d .[CDA]3 | [DGB]2 B d2 d | %11
w: |||||
 [DGB]2 G .[CDA]3 | [B,=FG]2 [B,G] [CEG]2 [EG] | [^CGA]2 [CGA] [DFA]3 | [DGd]>BG E2 [^Dc] | %15
w: ||||
 [DB]2 [DA] .[B,DG]3 |] %16
w: |
V:2
 G,,2 D/D/ .[G,,D,]3 | [G,,D,]3 [G,,D,]3 | [C,E,C]3 [B,,E,^G,]3 | [A,,E,A,]6 | A,,2 E .[A,,E,]3 | %5
 [A,,E,]3 [A,,E,]3 | [A,,E,G,]2[K:treble] A/A/[K:bass] z2 E | [D,,D,]6 | %8
 z z/[K:treble] c/[K:bass]D, F,2 D, | z z/[K:treble] c/[K:bass]D, F,2 D, | G,,2 D, [F,CD]2 D, | %11
 z z/ A/D, F,2 D, | z z/[K:treble] A/G,[K:bass] z2 C | z z/[K:treble] B/A,[K:bass] D,2 C, | %14
 [B,,G,]3 [C,G,]2 [A,,G,] | [D,F,]2 [D,F,C] .[G,,D,G,]3 |] %16
V:3
 x6 | x6 | x6 | x6 | z3 .C3 | x6 | x6 | x6 | x6 | x6 | x6 | x6 | x6 | x6 | x6 | x6 |] %16
V:4
 x6 | x6 | x6 | x6 | x6 | x6 | z3[K:treble][K:bass] A,,3 | x6 | .G,,3[K:treble][K:bass] z3 | %9
 .G,,3[K:treble][K:bass] z3 | x6 | .G,,3 z3 | .G,,3[K:treble][K:bass] C,3 | %13
 .A,,3[K:treble][K:bass] z3 | x6 | x6 |] %16

